X:1
T:The Boys of Mullabawn
M:6/8
L:1/4
K:D
 C/4C/4| D E/2 F D/2| B,/2 B, B, C/2| D E/2 F E/2| D/2 D- D F/2| A A/2 F A/2|\
 B- A/2 F F/2| EF/4-E/4 D E/2| F3/2- F F/2| A A/2 A B/2| B A/2- F F/2|\
 E E/2 E F/2| D/2 B,- B,/2B,/2 C/2| D E/2 F B/2| A F/2 E D/2| A, A,/2 B, B,/2|\
 B,3/2- B,||
